X:1
T:Erk, 87.87.887
T:Erk, 87.87.887
T:Etliche Christliche Lyeder, 1524
T:Public Domain Courtesy of the Cyber Hymnal™
C:Etliche Christliche Lyeder, 1524
Z:Public Domain
Z:Courtesy of the Cyber Hymnal™
%%score ( 1 2 ) ( 3 4 )
L:1/8
Q:1/4=110
M:none
K:A
V:1 treble 
V:2 treble 
V:3 bass 
V:4 bass 
V:1
 [EA]2 | [EA]2 [B,E]2 [EA]2 [Bd]2 x | [Ec]2 B2 [CA]2 A2 x | [EB][=Gc] d2 [Ac]2 B2 | %4
 F2 G2 !fermata![CA]2 [EA]2 | [EA]2 [B,E]2 [EA]2 [Bd]2 x | [Ec]2 B2 [CA]2 A2 x | %7
 [EB][=Gc] d2 [Ac]2 B2 | F2 G2 !fermata![CA]2 [EA]2 | d2 c2 [FB]2 e2 | e2 ^d2 [Ge]2 [Ae]2 | %11
 [Af]2 [Ad]2 e2 [Bd] x | c2 z [FA]2 [Fc]2 x | B2 [CE]2 A2 d2 | c2 z A2 x3 |] %15
V:2
 x2 | x9 | x2 ED x C^D x2 | x2 F^G x EB,/C/ x | D4 x4 | x9 | x2 ED x C^D x2 | x2 F^G x EB,/C/ x | %8
 D4 x4 | AB BA/G/ x BG x | FA AG/F/ x4 | x4 BG A x | BA (B2 G) x3 | FE/D/ x F E FG x | %14
 A3 (B2 G) A2 |] %15
V:3
 ([A,,C][B,,B,]) | A,2 G,2 A,3 z G, | A,3 z G, [A,,A,]2 [F,A,]2 | %3
 G,^A, [B,,B,]2 ([C,E,][D,F,]) [E,G,]2 | A,2 [B,,B,]2 !fermata![A,,E,]2 ([A,,C][B,,B,]) | %5
 A,2 G,2 A,3 z G, | A,3 z G, [A,,A,]2 [F,A,]2 | G,^A, [B,,B,]2 ([C,E,][D,F,]) [E,G,]2 | %8
 A,2 [B,,B,]2 !fermata![A,,E,]2 C2 | [F,F][G,E] [A,E]2 ^D2 E2 | CF, B,2 [E,B,]2 [C,E]2 | %11
 ([D,E]D/C/) DF [G,E][E,D] [F,C][G,B,] | C/D/E z D [F,C]2 [F,A,]2 | %13
 [G,B,]2 A,[G,B,] [F,C]2 [B,,B,]2 | E2 E>D [A,,C]2 x2 |] %15
V:4
 x2 | (C,D,) (E,D,) C,2 B,,2 x | (A,,C,) E,2 x5 | E,2 x6 | (D,C,) x6 | (C,D,) (E,D,) C,2 B,,2 x | %6
 (A,,C,) E,2 x5 | E,2 x6 | (D,C,) x3 (A,G,) x | x4 (A,B,/A,/) G,C | A,2 B,B,, x4 | x E, F,2 x4 | %12
 A,2 E,2 x4 | x8 | C,D, E,2 x4 |] %15

